brandFactory_export/3.Masa/Call center_Atencion al cliente_3Masa.svg

<?xml version="1.0" encoding="UTF-8"?>
<svg width="24px" height="24px" viewBox="0 0 24 24" version="1.1" xmlns="http://www.w3.org/2000/svg" xmlns:xlink="http://www.w3.org/1999/xlink">
    <title>3.Masa/Call center_Atencion al cliente_3Masa</title>
    <g id="Symbols" stroke="none" stroke-width="1" fill="none" fill-rule="evenodd">
        <g id="3.Masa/Call-center_Atencion-al-cliente_3Masa" fill="#5CB615" fill-rule="nonzero">
            <path d="M15.7529412,14.4235294 C17.9445378,14.4235294 19.7462185,15.0890756 20.9596639,16.3495798 C22.0756303,17.5092437 22.6638655,19.1159664 22.6638655,20.994958 L22.6638655,22.9613445 C22.6638655,23.3344538 22.3647059,23.6336134 21.9915966,23.6336134 L1.67226891,23.6336134 C1.30252101,23.6336134 1,23.3310924 1,22.9613445 L1,20.994958 C1,19.1159664 1.58823529,17.5092437 2.70420168,16.3495798 C3.91764706,15.0890756 5.71932773,14.4235294 7.91092437,14.4235294 L15.7529412,14.4235294 Z M11.8436975,2.62521008 C15.2487395,2.62521008 17.1243697,4.50084034 17.1243697,7.90588235 C17.1243697,8.08403361 17.1176471,8.25882353 17.107563,8.4302521 L17.107563,8.4302521 L14.4319328,8.4302521 C14.1159664,8.14453782 13.6890756,7.98991597 13.194958,7.98991597 C12.6705882,7.98991597 12.2268908,8.16134454 11.897479,8.48739496 C11.5680672,8.81344538 11.3966387,9.2605042 11.3966387,9.78151261 C11.3966387,10.2957983 11.5680672,10.7394958 11.887395,11.0655462 C12.2168067,11.3983193 12.6672269,11.5731092 13.194958,11.5731092 C13.692437,11.5731092 14.1260504,11.4151261 14.4453782,11.1159664 L14.4453782,11.1159664 L16.3210084,11.1159664 C15.4672269,12.4705882 13.9478992,13.1865546 11.8436975,13.1865546 C8.43865546,13.1865546 6.56302521,11.3109244 6.56302521,7.90588235 C6.56302521,4.50084034 8.43865546,2.62521008 11.8436975,2.62521008 Z M11.8369748,2.66453526e-14 C14.2268908,2.66453526e-14 16.092437,0.628571429 17.3764706,1.86890756 C18.7109244,3.15630252 19.389916,5.06890756 19.3799426,7.55966387 L19.3799426,7.55966387 L19.3799426,7.5697479 L19.3697479,8.22184874 C19.3697479,8.90084034 19.1579832,9.46890756 18.7647059,9.85882353 C18.3714286,10.2487395 17.8302521,10.4470588 17.1579832,10.4470588 L17.1579832,10.4470588 L14.1361345,10.4470588 C14.102521,10.5008403 14.0621849,10.5512605 14.0184874,10.594958 C13.8235294,10.7966387 13.5344538,10.9008403 13.1915966,10.9008403 C12.8487395,10.9008403 12.5596639,10.7932773 12.3647059,10.594958 C12.1697479,10.3966387 12.0689076,10.1210084 12.0689076,9.78151261 C12.0689076,9.09243697 12.502521,8.66218487 13.194958,8.66218487 C13.6184874,8.66218487 13.9445378,8.82352941 14.1327731,9.10252101 L14.1327731,9.10252101 L17.1680672,9.10252101 C17.4705882,9.10252101 17.6957983,9.03529412 17.8302521,8.90084034 C17.9983193,8.72941176 18.0352941,8.43361345 18.0352941,8.21176471 L18.0352941,8.21176471 L18.0352941,8.20168067 L18.0453782,7.54957983 C18.0420168,5.44537815 17.5042017,3.85882353 16.4386555,2.83697479 C15.410084,1.84537815 13.8605042,1.34453782 11.8302521,1.34453782 C9.99495798,1.34453782 8.54621849,1.75798319 7.53109244,2.56470588 C6.50252101,3.38823529 5.88067227,4.65546218 5.68907563,6.3394958 C5.64537815,6.70252101 5.31932773,6.96134454 4.95294118,6.92436975 C4.58319328,6.88403361 4.31428571,6.55462185 4.35462185,6.18487395 C4.58991597,4.13781513 5.37647059,2.56470588 6.69747899,1.51260504 C7.95798319,0.507563025 9.68907563,2.66453526e-14 11.8369748,2.66453526e-14 Z" id="Call-center_Atencion-al-cliente_3Masa"></path>
        </g>
    </g>
</svg>

<svg width="24" height="24" viewBox="0 0 24 24" xmlns="http://www.w3.org/2000/svg"><path d="M15.753 14.424c2.192 0 3.993.665 5.207 1.926 1.116 1.16 1.704 2.766 1.704 4.645v1.966a.67.67 0 01-.672.673H1.672A.674.674 0 011 22.96v-1.966c0-1.879.588-3.486 1.704-4.645 1.214-1.26 3.015-1.926 5.207-1.926h7.842zm-3.91-11.799c3.406 0 5.281 1.876 5.281 5.28 0 .179-.006.354-.016.525h-2.676c-.316-.285-.743-.44-1.237-.44-.524 0-.968.171-1.298.497-.329.326-.5.774-.5 1.295 0 .514.171.957.49 1.284.33.332.78.507 1.308.507.497 0 .931-.158 1.25-.457h1.876c-.854 1.355-2.373 2.07-4.477 2.07-3.405 0-5.281-1.875-5.281-5.28 0-3.405 1.876-5.28 5.28-5.28zM11.838 0c2.39 0 4.255.629 5.54 1.869 1.334 1.287 2.013 3.2 2.003 5.69v.01l-.01.653c0 .679-.212 1.247-.605 1.637-.394.39-.935.588-1.607.588h-3.022a.843.843 0 01-.118.148c-.194.202-.484.306-.826.306-.343 0-.632-.108-.827-.306-.195-.198-.296-.474-.296-.813 0-.69.434-1.12 1.126-1.12.423 0 .75.162.938.44h3.035c.303 0 .528-.067.662-.201.168-.172.205-.467.205-.69v-.01l.01-.651c-.003-2.105-.54-3.691-1.606-4.713-1.029-.992-2.578-1.492-4.609-1.492-1.835 0-3.284.413-4.299 1.22-1.028.823-1.65 2.09-1.842 3.774a.672.672 0 01-1.334-.155c.235-2.046 1.021-3.62 2.342-4.671C7.958.508 9.69 0 11.837 0z" fill="#5CB615" fill-rule="nonzero"/></svg>
